build/images/team/list-marker.svg

<svg width="9" height="8" viewBox="0 0 9 8" fill="none" xmlns="http://www.w3.org/2000/svg">
<path d="M8.75329 3.78214C7.80216 3.52967 6.93751 3.07142 6.23782 2.44897C5.53814 1.82653 5.02559 1.05962 4.74671 0.217865C4.74671 0.160084 4.72072 0.104669 4.67445 0.063811C4.62819 0.0229534 4.56543 0 4.5 0C4.43457 0 4.37182 0.0229534 4.32555 0.063811C4.27929 0.104669 4.25329 0.160084 4.25329 0.217865C3.97441 1.05962 3.46186 1.82653 2.76218 2.44897C2.06249 3.07142 1.19784 3.52967 0.246711 3.78214C0.181279 3.78214 0.118523 3.80509 0.0722559 3.84595C0.0259887 3.8868 0 3.94222 0 4C0 4.05778 0.0259887 4.1132 0.0722559 4.15405C0.118523 4.19491 0.181279 4.21787 0.246711 4.21787C1.19763 4.47069 2.06207 4.92906 2.76169 5.55145C3.46132 6.17384 3.974 6.94056 4.25329 7.78214C4.25329 7.83992 4.27929 7.89533 4.32555 7.93619C4.37182 7.97705 4.43457 8 4.5 8C4.56543 8 4.62819 7.97705 4.67445 7.93619C4.72072 7.89533 4.74671 7.83992 4.74671 7.78214C5.026 6.94056 5.53868 6.17384 6.23831 5.55145C6.93793 4.92906 7.80237 4.47069 8.75329 4.21787C8.81872 4.21787 8.88148 4.19491 8.92774 4.15405C8.97401 4.1132 9 4.05778 9 4C9 3.94222 8.97401 3.8868 8.92774 3.84595C8.88148 3.80509 8.81872 3.78214 8.75329 3.78214Z" fill="white"/>
</svg>

<svg width="9" height="8" fill="none" xmlns="http://www.w3.org/2000/svg"><path d="M8.753 3.782A6.158 6.158 0 016.238 2.45 5.176 5.176 0 014.747.218a.206.206 0 00-.073-.154A.264.264 0 004.5 0a.264.264 0 00-.174.064.206.206 0 00-.073.154 5.176 5.176 0 01-1.49 2.231A6.158 6.158 0 01.246 3.782a.264.264 0 00-.175.064A.206.206 0 000 4c0 .058.026.113.072.154.047.04.11.064.175.064.95.253 1.815.711 2.515 1.333a5.18 5.18 0 011.491 2.231c0 .058.026.113.073.154A.263.263 0 004.5 8a.264.264 0 00.174-.064.206.206 0 00.073-.154 5.18 5.18 0 011.491-2.23 6.163 6.163 0 012.515-1.334.264.264 0 00.175-.064A.206.206 0 009 4a.206.206 0 00-.072-.154.264.264 0 00-.175-.064z" fill="#fff"/></svg>
